!!!OTL: Es steht ein Lind (Band 1), S. 255
!!!id: P0866
**kern
*clefG2
*k[]
*F:
{8f
=1
8f
8a
4cc
4cc
=2
8dd
8b
8cc}
=3
{8f
8f
8a
=4
4cc
4cc
8dd
8b
=5
4cc}
8r
=6
{8a
8a
8a
=7
8a
8a
8a
8cc
8cc
8b-
=8
8g
8g
4g}
8r
=9
{16f
16g
=10
8a
8a
8a
8a
8a
8cc
=11
8cc
8b-
8g
8g
8f}
==
*-
!!!minrhy: 16
!!!meters: 3/4 ]  ZZ[4
!!!cut: Es steht ein Lind (Band 1), S. 255
!!!reg: Lothringen
!!!trd: PINCK, Louis: Verklingende Weisen, Bd 1, Metz 1928
!!!rhy1: X_  X_X_X__X__  X_X_X_   (x2)
!!!rhy2: X_X_X_  X__X__X_X_  X__0
!!!key: P0866  16  F 3/4 ]  ZZ[4
!!!mod: HEPTATONIK DUR ?]  AMBITUS[6
!!!kad: 5521
!!!akz: 16_55_32_35_
!!!fot: 'a__a__b__bw_
!!!for: 'a__b__c__cw_
!!!fok: '/__/__^d_^__
!! PHRAS[AUFTAKTIG]
!!!fkt: Untreue
!! LOTH VKL
!! PR[44] 2K[3] 2G[8] 3K[3] 3G[0] 4A[8] 4Ü[0] 5A[0] 6K[0] 6G[0]
!! 7K[0] 7G[0] 8A[0] MEHR[0] SI[21] ABS[39] SR[10] SP[10]
!! ST[0] 2k[8] 2g[18] 3k[5] 3g[3] 4d[3] 4ü[0] 5d[0] 6k[0] 6g[0]
!! 7k[0] 7g[0] 8d[0] mehr[0] si[36] dm[-15] sr[26] sp[10]
!! 1F[20] 2F[65] 3F[15] 4F[0] LF[0] 2P[0] 3P[0] 4P[0] TRI[0] DF[3] AB[40]
!! TF[0] U3K[0] U3[0] U4[0] U4Ü[0] U5[0] U6K[0] U6[0] U7K[3] U7[0]
!! N1[8] N2K[0] N2[10] N3K[13] N3[0] N4[5] N4Ü[0] N5[40] N6K[0] N6[8]
!!!n7k: 5] N7[0] O1[10] O2K[0] O2[0] O3K[0] O3[0] HÖ[0
